X: 40950
T: Trip To Clarina, The
R: jig
M: 6/8
K: Edorian
GEF G2B|~A3 FED|GEF Gge|dBA BEE|
GEF G2B|~A3 FED|EGA B=cB|AFD E3:|
GFE efe|dBc def|EGB efe|dBc ~d2f|
~e3 ~d2B|AFD FED|EGA B=cB|AFD E3:|

